X:1
T: Donaldson's Loch
C:
R:Reel
Q: 232
K:G
M:4/4
L:1/8
|:g2 dc BG Bd|ec eg dB G2|ce dc Bd gB|AE AG FA d2|
g2 dc BG Bd|ec eg dB G2|ce dc Bd gB|Ad cA BG Gd:|
Bd g2 dB G2|ce g2 ec A2|Bd g2 dB G2|Ad de fd cA|
Bd g2 dB G2|ce g2 ec A2|ce dc Bd gB|Ad cA BG Gd|
Bd gd Bd BG|ce ge ce cA|Bd gd Bd BG|Ad de fd cA|
Bd gd Bd BG|ce ge ce cA|ce dc Bd gB|Ad cA BG G||
